fs/table_stack_right_28_filled.svg

<svg viewBox="0 0 28 28" fill="none" xmlns="http://www.w3.org/2000/svg" height="1em" width="1em">
  <path d="M23.5 24.25C23.5 24.6642 23.8358 25 24.25 25C24.6642 25 25 24.6642 25 24.25L25 3.75C25 3.33579 24.6642 3 24.25 3C23.8358 3 23.5 3.33579 23.5 3.75L23.5 24.25ZM11 3L16 3C16.5523 3 17 3.44772 17 4L17 9.5L11 9.5L11 3ZM6.75 3L9.5 3L9.5 9.5L3 9.5L3 6.75C3 4.67893 4.67893 3 6.75 3ZM3 17L3 11H9.5L9.5 17H3ZM3 21.25L3 18.5H9.5L9.5 25H6.75C4.67893 25 3 23.3211 3 21.25ZM17 24C17 24.5523 16.5523 25 16 25H11L11 18.5L17 18.5V24ZM11 11L11 17L17 17L17 11H11Z" fill="#212121"/>
</svg>

<svg viewBox="0 0 28 28" fill="none" xmlns="http://www.w3.org/2000/svg" height="1em" width="1em">
  <path d="M23.5 24.25a.75.75 0 0 0 1.5 0V3.75a.75.75 0 0 0-1.5 0v20.5ZM11 3h5a1 1 0 0 1 1 1v5.5h-6V3ZM6.75 3H9.5v6.5H3V6.75A3.75 3.75 0 0 1 6.75 3ZM3 17v-6h6.5v6H3Zm0 4.25V18.5h6.5V25H6.75A3.75 3.75 0 0 1 3 21.25ZM17 24a1 1 0 0 1-1 1h-5v-6.5h6V24Zm-6-13v6h6v-6h-6Z" fill="#212121"/>
</svg>
